Sources/FrostedUI/Resources/Icons.xcassets/paypal24.imageset/paypal-24.svg

<svg width="24" height="24" viewBox="0 0 24 24" fill="none" xmlns="http://www.w3.org/2000/svg" data-fui-icon="true">
  <path
    d="M13.2599 2.07227C16.3635 2.07238 18.0546 3.1884 18.8927 4.59766C19.0679 4.89228 19.1992 5.19219 19.299 5.48438C20.803 6.18016 21.6042 7.21083 22.0001 8.20605C22.4041 9.22193 22.3684 10.1506 22.3253 10.5586C22.3117 10.6868 22.2957 10.8114 22.2804 10.9258L22.2794 10.9336C22.1978 11.544 21.8462 13.386 20.4279 15.0869C18.9822 16.8203 16.5008 18.3182 12.339 18.3184H11.2511C11.1695 18.3184 11.0985 18.3762 11.0822 18.4561L10.4572 21.583C10.3009 22.3641 9.61497 22.9264 8.81848 22.9268H5.87415C4.92947 22.9267 4.22445 22.0572 4.41907 21.1328L4.62317 20.1621H3.11926C2.16791 20.1619 1.4617 19.2803 1.66809 18.3516L4.83411 4.10254C5.0981 2.9166 6.15033 2.07241 7.36536 2.07227H13.2599ZM19.5812 7.40039C19.5764 7.58412 19.5662 7.73307 19.5548 7.83496C19.5433 7.93792 19.5304 8.03971 19.5148 8.14355C19.4341 8.68041 19.0817 10.3116 17.6486 11.8135C16.1955 13.3358 13.7199 14.6317 9.57336 14.6318H8.45032C8.37184 14.6318 8.30272 14.6857 8.28333 14.7617L7.25012 18.8955C7.11029 19.4548 6.69689 19.8883 6.17493 20.0693L5.88977 21.4268H8.81848C8.89989 21.4264 8.9704 21.3689 8.98645 21.2891L9.61145 18.1621C9.76795 17.381 10.4545 16.8184 11.2511 16.8184H12.339C16.0942 16.8182 18.1395 15.4893 19.2765 14.126C20.4397 12.7307 20.7291 11.2058 20.7921 10.7344L20.7931 10.7275C20.8088 10.6101 20.823 10.5059 20.8341 10.4014C20.8632 10.1264 20.8875 9.46727 20.6066 8.76074C20.4299 8.31644 20.123 7.8322 19.5812 7.40039ZM7.36536 3.57227C6.85323 3.57241 6.4093 3.92885 6.29797 4.42871L3.13586 18.6621H5.62805C5.70655 18.6619 5.7759 18.6084 5.79504 18.5322L6.82825 14.3984C7.01447 13.6545 7.68343 13.1318 8.45032 13.1318H9.57336C13.3831 13.1317 15.4403 11.9543 16.5636 10.7773C17.7057 9.58029 17.9764 8.2858 18.0314 7.91992C18.0439 7.83631 18.054 7.75341 18.0636 7.66797C18.1029 7.31541 18.1501 6.28324 17.6036 5.36426C17.0974 4.51306 15.967 3.57237 13.2599 3.57227H7.36536Z"
    fill="currentColor"
  />
</svg>

<svg xmlns="http://www.w3.org/2000/svg" width="24" height="24" fill="none" data-fui-icon="true" viewBox="0 0 24 24"><path fill="currentColor" d="M13.26 2.072c3.103 0 4.795 1.116 5.633 2.526.175.294.306.594.406.886 1.504.696 2.305 1.727 2.701 2.722a5.1 5.1 0 0 1 .325 2.353q-.021.193-.045.367v.008a8.47 8.47 0 0 1-1.852 4.153c-1.446 1.733-3.927 3.231-8.089 3.231h-1.088a.17.17 0 0 0-.169.138l-.625 3.127a1.67 1.67 0 0 1-1.639 1.344H5.874c-.945 0-1.65-.87-1.455-1.794l.204-.97H3.12a1.488 1.488 0 0 1-1.45-1.811l3.165-14.25a2.594 2.594 0 0 1 2.531-2.03zM19.58 7.4a5 5 0 0 1-.066.744c-.08.536-.433 2.168-1.866 3.67-1.454 1.522-3.93 2.818-8.076 2.818H8.45a.17.17 0 0 0-.167.13L7.25 18.895c-.14.56-.553.993-1.075 1.174l-.285 1.358h2.928a.17.17 0 0 0 .168-.138l.625-3.127a1.67 1.67 0 0 1 1.64-1.344h1.088c3.755 0 5.8-1.329 6.937-2.692a6.97 6.97 0 0 0 1.516-3.392l.001-.007c.016-.117.03-.221.041-.326.03-.275.053-.934-.227-1.64A3.26 3.26 0 0 0 19.58 7.4M7.365 3.572c-.512 0-.956.357-1.067.857L3.136 18.662h2.492a.17.17 0 0 0 .167-.13l1.033-4.134a1.67 1.67 0 0 1 1.622-1.266h1.123c3.81 0 5.867-1.178 6.99-2.355 1.143-1.197 1.413-2.491 1.468-2.857q.019-.125.033-.252c.039-.353.086-1.385-.46-2.304-.507-.85-1.637-1.792-4.344-1.792z"/></svg>
